resources/icons/linkedin.svg

<svg height="512pt" viewBox="0 0 512 512" width="512pt" xmlns="http://www.w3.org/2000/svg"><path d="m160.007812 423h-70v-226h70zm6.984376-298.003906c0-22.628906-18.359376-40.996094-40.976563-40.996094-22.703125 0-41.015625 18.367188-41.015625 40.996094 0 22.636718 18.3125 41.003906 41.015625 41.003906 22.617187 0 40.976563-18.367188 40.976563-41.003906zm255.007812 173.667968c0-60.667968-12.816406-105.664062-83.6875-105.664062-34.054688 0-56.914062 17.03125-66.246094 34.742188h-.066406v-30.742188h-68v226h68v-112.210938c0-29.386718 7.480469-57.855468 43.90625-57.855468 35.929688 0 37.09375 33.605468 37.09375 59.722656v110.34375h69zm90 153.335938v-392c0-33.085938-26.914062-60-60-60h-392c-33.085938 0-60 26.914062-60 60v392c0 33.085938 26.914062 60 60 60h392c33.085938 0 60-26.914062 60-60zm-60-412c11.027344 0 20 8.972656 20 20v392c0 11.027344-8.972656 20-20 20h-392c-11.027344 0-20-8.972656-20-20v-392c0-11.027344 8.972656-20 20-20zm0 0"/></svg>

<?xml version="1.0" encoding="utf-8"?>
<!-- Generator: Adobe Illustrator 24.3.0, SVG Export Plug-In . SVG Version: 6.00 Build 0)  -->
<svg version="1.1" id="Layer_1" xmlns="http://www.w3.org/2000/svg" xmlns:xlink="http://www.w3.org/1999/xlink" x="0px" y="0px"
	 viewBox="0 0 512 512" style="enable-background:new 0 0 512 512;" xml:space="preserve">
<style type="text/css">
	.st0{fill:#313131;}
</style>
<path class="st0" d="M160,423H90V197h70V423z M167,125c0-22.6-18.4-41-41-41c-22.7,0-41,18.4-41,41c0,22.6,18.3,41,41,41
	C148.6,166,167,147.6,167,125z M422,298.7C422,238,409.2,193,338.3,193c-34.1,0-56.9,17-66.2,34.7H272V197h-68v226h68V310.8
	c0-29.4,7.5-57.9,43.9-57.9c35.9,0,37.1,33.6,37.1,59.7V423h69V298.7z M512,452V60c0-33.1-26.9-60-60-60H60C26.9,0,0,26.9,0,60v392
	c0,33.1,26.9,60,60,60h392C485.1,512,512,485.1,512,452z M452,40c11,0,20,9,20,20v392c0,11-9,20-20,20H60c-11,0-20-9-20-20V60
	c0-11,9-20,20-20H452z"/>
</svg>
